svg/color/aergo.svg

<?xml version="1.0" encoding="UTF-8" ?>
<!DOCTYPE svg PUBLIC "-//W3C//DTD SVG 1.1//EN" "http://www.w3.org/Graphics/SVG/1.1/DTD/svg11.dtd">
<svg width="250pt" height="250pt" viewBox="0 0 250 250" version="1.1" xmlns="http://www.w3.org/2000/svg">
<g id="#ffffffff">
<path fill="#ffffff" opacity="1.00" d=" M 0.00 0.00 L 250.00 0.00 L 250.00 250.00 L 0.00 250.00 L 0.00 0.00 M 143.90 43.12 C 140.90 45.49 138.11 48.17 135.77 51.19 C 132.98 53.71 130.18 56.28 127.91 59.29 C 124.89 61.56 121.96 64.07 119.81 67.20 C 116.92 69.49 114.17 72.04 112.11 75.10 C 109.25 77.37 106.45 79.84 104.41 82.89 C 101.14 85.36 97.89 88.04 95.58 91.46 C 92.68 93.83 89.84 96.38 87.66 99.44 C 84.47 102.25 81.30 105.15 78.62 108.46 C 74.54 111.80 70.62 115.47 67.44 119.70 C 62.99 123.49 59.22 127.98 54.84 131.85 C 51.93 134.23 49.60 137.82 50.44 141.74 C 51.34 148.32 59.88 152.04 65.29 148.26 C 68.64 145.59 71.80 142.52 74.14 138.91 C 76.52 137.35 78.56 135.26 81.16 134.07 C 85.42 133.10 90.27 134.62 92.33 138.68 C 94.52 141.57 92.57 145.10 92.84 148.31 C 89.38 150.96 86.28 154.11 83.54 157.50 C 81.32 159.32 79.12 161.24 77.44 163.59 C 73.72 166.45 70.63 170.02 67.35 173.35 C 59.75 181.43 51.44 188.80 43.81 196.84 C 41.94 198.76 40.32 201.19 40.43 203.99 C 40.22 209.09 44.67 214.26 50.00 213.72 C 52.87 213.95 55.52 212.50 57.50 210.52 C 62.21 205.90 66.76 201.10 71.38 196.39 C 72.90 194.93 74.46 193.37 76.47 192.60 C 79.03 192.18 81.62 192.68 84.18 192.86 C 86.80 197.23 92.03 198.35 96.76 197.59 L 96.80 197.00 C 100.34 194.55 103.91 191.84 106.22 188.14 C 109.23 185.84 112.36 183.32 114.04 179.85 C 115.77 179.47 117.44 178.85 119.09 178.20 C 125.43 177.37 129.11 184.47 135.34 183.59 C 139.11 182.57 142.47 180.02 144.46 176.66 C 147.45 174.38 150.49 171.94 152.58 168.77 C 154.99 167.03 157.39 165.01 158.78 162.32 C 161.75 160.13 164.74 157.67 166.56 154.39 C 170.04 151.90 173.16 148.92 175.98 145.70 C 178.74 143.28 181.57 140.76 183.54 137.63 C 188.51 133.35 193.25 128.70 197.63 123.84 C 201.32 120.81 204.59 117.31 207.88 113.86 C 212.30 109.61 211.32 101.04 205.57 98.41 C 200.02 95.38 193.75 99.44 190.62 104.08 C 187.11 107.12 184.27 111.02 179.93 112.98 C 177.86 112.74 175.76 112.71 173.74 112.17 C 170.35 110.92 168.17 107.52 167.90 104.00 C 168.33 101.89 169.07 99.85 169.33 97.71 C 174.37 94.52 178.20 89.83 182.15 85.45 C 186.22 81.73 190.44 78.01 193.69 73.54 C 198.54 70.19 202.22 65.49 206.50 61.50 C 209.78 58.53 212.62 53.82 210.65 49.35 C 209.63 45.44 205.77 43.27 202.02 42.71 C 195.71 43.32 191.62 48.76 187.75 53.16 C 183.51 56.83 179.64 60.93 175.90 65.09 C 171.88 68.80 167.97 72.63 163.59 75.91 C 159.62 76.17 155.89 74.98 152.67 72.69 C 152.08 69.40 151.63 66.09 151.17 62.78 C 154.78 59.52 158.14 55.98 161.45 52.42 C 164.29 49.60 164.31 45.14 163.29 41.52 C 161.66 38.53 158.54 35.97 154.96 36.24 C 150.23 35.88 146.39 39.50 143.90 43.12 M 208.29 70.19 C 202.12 72.54 203.26 83.47 210.11 83.77 C 214.39 84.78 218.15 81.04 218.54 76.98 C 218.53 72.07 212.95 67.74 208.29 70.19 M 36.52 167.66 C 34.33 169.00 32.32 171.29 32.36 174.00 C 32.14 178.98 38.11 183.25 42.65 180.72 C 47.25 178.86 48.08 171.78 44.29 168.75 C 42.25 166.77 39.06 167.07 36.52 167.66 Z" />
</g>
<g id="#c25993ff">
<path fill="#c25993" opacity="1.00" d=" M 143.90 43.12 C 146.39 39.50 150.23 35.88 154.96 36.24 C 158.54 35.97 161.66 38.53 163.29 41.52 C 164.31 45.14 164.29 49.60 161.45 52.42 C 158.14 55.98 154.78 59.52 151.17 62.78 C 147.14 56.90 145.45 49.98 143.90 43.12 Z" />
</g>
<g id="#b6679bff">
<path fill="#b6679b" opacity="1.00" d=" M 135.77 51.19 C 138.11 48.17 140.90 45.49 143.90 43.12 C 145.45 49.98 147.14 56.90 151.17 62.78 C 151.63 66.09 152.08 69.40 152.67 72.69 C 152.28 72.75 151.49 72.86 151.09 72.92 C 157.59 95.23 164.14 117.55 171.16 139.71 C 171.77 141.51 172.32 143.39 173.44 144.95 C 174.27 145.25 175.12 145.50 175.98 145.70 C 173.16 148.92 170.04 151.90 166.56 154.39 C 164.84 150.27 163.17 146.12 162.03 141.80 C 154.98 116.37 146.18 91.49 138.74 66.19 C 137.18 61.34 135.25 56.39 135.77 51.19 Z" />
</g>
<g id="#e4107fff">
<path fill="#e4107f" opacity="1.00" d=" M 187.75 53.16 C 191.62 48.76 195.71 43.32 202.02 42.71 C 205.77 43.27 209.63 45.44 210.65 49.35 C 212.62 53.82 209.78 58.53 206.50 61.50 C 202.22 65.49 198.54 70.19 193.69 73.54 C 190.12 67.31 187.77 60.40 187.75 53.16 Z" />
</g>
<g id="#ad6e9fff">
<path fill="#ad6e9f" opacity="1.00" d=" M 127.91 59.29 C 130.18 56.28 132.98 53.71 135.77 51.19 C 135.25 56.39 137.18 61.34 138.74 66.19 C 146.18 91.49 154.98 116.37 162.03 141.80 C 163.17 146.12 164.84 150.27 166.56 154.39 C 164.74 157.67 161.75 160.13 158.78 162.32 C 155.69 153.75 153.74 144.83 150.67 136.26 C 144.16 117.10 138.73 97.60 132.77 78.26 C 130.74 72.05 128.60 65.83 127.91 59.29 Z" />
</g>
<g id="#d34088ff">
<path fill="#d34088" opacity="1.00" d=" M 175.90 65.09 C 179.64 60.93 183.51 56.83 187.75 53.16 C 187.77 60.40 190.12 67.31 193.69 73.54 C 190.44 78.01 186.22 81.73 182.15 85.45 C 180.93 85.71 179.70 85.98 178.45 86.09 C 176.10 79.49 172.95 72.01 175.90 65.09 Z" />
</g>
<g id="#a474a4ff">
<path fill="#a474a4" opacity="1.00" d=" M 119.81 67.20 C 121.96 64.07 124.89 61.56 127.91 59.29 C 128.60 65.83 130.74 72.05 132.77 78.26 C 138.73 97.60 144.16 117.10 150.67 136.26 C 153.74 144.83 155.69 153.75 158.78 162.32 C 157.39 165.01 154.99 167.03 152.58 168.77 C 150.73 165.96 148.69 163.18 147.88 159.85 C 145.47 151.48 142.94 143.15 140.16 134.90 C 138.17 128.50 136.58 121.98 134.33 115.65 C 130.79 105.36 128.49 94.68 124.64 84.48 C 122.51 78.88 120.71 73.14 119.81 67.20 Z" />
</g>
<g id="#c75490ff">
<path fill="#c75490" opacity="1.00" d=" M 163.59 75.91 C 167.97 72.63 171.88 68.80 175.90 65.09 C 172.95 72.01 176.10 79.49 178.45 86.09 C 179.70 85.98 180.93 85.71 182.15 85.45 C 178.20 89.83 174.37 94.52 169.33 97.71 C 165.28 92.50 163.94 85.92 162.38 79.66 C 161.85 78.21 162.58 76.93 163.59 75.91 Z" />
</g>
<g id="#9b7aa9ff">
<path fill="#9b7aa9" opacity="1.00" d=" M 112.11 75.10 C 114.17 72.04 116.92 69.49 119.81 67.20 C 120.71 73.14 122.51 78.88 124.64 84.48 C 128.49 94.68 130.79 105.36 134.33 115.65 C 136.58 121.98 138.17 128.50 140.16 134.90 C 142.94 143.15 145.47 151.48 147.88 159.85 C 148.69 163.18 150.73 165.96 152.58 168.77 C 150.49 171.94 147.45 174.38 144.46 176.66 C 140.05 172.09 140.03 165.51 138.12 159.80 C 135.17 150.41 131.95 141.11 129.41 131.60 C 127.01 122.37 123.18 113.60 120.70 104.40 C 118.00 94.58 114.36 85.04 112.11 75.10 Z" />
</g>
<g id="#e5087dff">
<path fill="#e5087d" opacity="1.00" d=" M 208.29 70.19 C 212.95 67.74 218.53 72.07 218.54 76.98 C 218.15 81.04 214.39 84.78 210.11 83.77 C 203.26 83.47 202.12 72.54 208.29 70.19 Z" />
</g>
<g id="#be5f96ff">
<path fill="#be5f96" opacity="1.00" d=" M 151.09 72.92 C 151.49 72.86 152.28 72.75 152.67 72.69 C 155.89 74.98 159.62 76.17 163.59 75.91 C 162.58 76.93 161.85 78.21 162.38 79.66 C 163.94 85.92 165.28 92.50 169.33 97.71 C 169.07 99.85 168.33 101.89 167.90 104.00 C 168.17 107.52 170.35 110.92 173.74 112.17 C 175.76 112.71 177.86 112.74 179.93 112.98 C 178.74 113.87 177.38 114.54 176.33 115.61 C 176.78 123.38 179.92 130.81 183.54 137.63 C 181.57 140.76 178.74 143.28 175.98 145.70 C 175.12 145.50 174.27 145.25 173.44 144.95 C 172.32 143.39 171.77 141.51 171.16 139.71 C 164.14 117.55 157.59 95.23 151.09 72.92 Z" />
</g>
<g id="#927fadff">
<path fill="#927fad" opacity="1.00" d=" M 104.41 82.89 C 106.45 79.84 109.25 77.37 112.11 75.10 C 114.36 85.04 118.00 94.58 120.70 104.40 C 123.18 113.60 127.01 122.37 129.41 131.60 C 131.95 141.11 135.17 150.41 138.12 159.80 C 140.03 165.51 140.05 172.09 144.46 176.66 C 142.47 180.02 139.11 182.57 135.34 183.59 C 133.84 172.81 129.39 162.80 126.63 152.34 C 121.96 139.38 118.40 126.06 114.08 112.98 C 110.96 102.92 108.86 92.50 104.41 82.89 Z" />
</g>
<g id="#8785b2ff">
<path fill="#8785b2" opacity="1.00" d=" M 95.58 91.46 C 97.89 88.04 101.14 85.36 104.41 82.89 C 108.86 92.50 110.96 102.92 114.08 112.98 C 118.40 126.06 121.96 139.38 126.63 152.34 C 129.39 162.80 133.84 172.81 135.34 183.59 C 129.11 184.47 125.43 177.37 119.09 178.20 C 120.48 177.64 121.88 177.06 123.18 176.29 C 123.08 174.22 122.46 172.21 121.89 170.23 C 115.02 147.21 107.62 124.35 100.89 101.28 C 100.01 97.58 97.91 94.39 95.58 91.46 Z" />
</g>
<g id="#7c8ab7ff">
<path fill="#7c8ab7" opacity="1.00" d=" M 87.66 99.44 C 89.84 96.38 92.68 93.83 95.58 91.46 C 97.91 94.39 100.01 97.58 100.89 101.28 C 107.62 124.35 115.02 147.21 121.89 170.23 C 122.46 172.21 123.08 174.22 123.18 176.29 C 121.88 177.06 120.48 177.64 119.09 178.20 C 117.44 178.85 115.77 179.47 114.04 179.85 C 107.23 154.59 97.93 130.08 91.20 104.80 C 90.61 102.68 88.86 101.21 87.66 99.44 Z" />
</g>
<g id="#d73586ff">
<path fill="#d73586" opacity="1.00" d=" M 190.62 104.08 C 193.75 99.44 200.02 95.38 205.57 98.41 C 211.32 101.04 212.30 109.61 207.88 113.86 C 204.59 117.31 201.32 120.81 197.63 123.84 C 192.63 118.53 191.22 111.11 190.62 104.08 Z" />
</g>
<g id="#6e8fbdff">
<path fill="#6e8fbd" opacity="1.00" d=" M 78.62 108.46 C 81.30 105.15 84.47 102.25 87.66 99.44 C 88.86 101.21 90.61 102.68 91.20 104.80 C 97.93 130.08 107.23 154.59 114.04 179.85 C 112.36 183.32 109.23 185.84 106.22 188.14 C 103.63 177.15 98.97 166.80 96.26 155.86 C 95.45 153.20 93.95 150.84 92.84 148.31 C 92.57 145.10 94.52 141.57 92.33 138.68 C 90.27 134.62 85.42 133.10 81.16 134.07 C 82.93 133.40 84.75 132.92 86.49 132.19 C 86.21 126.90 83.95 121.98 82.82 116.85 C 82.17 113.73 80.27 111.12 78.62 108.46 Z" />
</g>
<g id="#ca508eff">
<path fill="#ca508e" opacity="1.00" d=" M 179.93 112.98 C 184.27 111.02 187.11 107.12 190.62 104.08 C 191.22 111.11 192.63 118.53 197.63 123.84 C 193.25 128.70 188.51 133.35 183.54 137.63 C 179.92 130.81 176.78 123.38 176.33 115.61 C 177.38 114.54 178.74 113.87 179.93 112.98 Z" />
</g>
<g id="#5796c3ff">
<path fill="#5796c3" opacity="1.00" d=" M 67.44 119.70 C 70.62 115.47 74.54 111.80 78.62 108.46 C 80.27 111.12 82.17 113.73 82.82 116.85 C 83.95 121.98 86.21 126.90 86.49 132.19 C 84.75 132.92 82.93 133.40 81.16 134.07 C 78.56 135.26 76.52 137.35 74.14 138.91 C 72.65 132.27 70.54 125.77 67.44 119.70 Z" />
</g>
<g id="#289ecdff">
<path fill="#289ecd" opacity="1.00" d=" M 54.84 131.85 C 59.22 127.98 62.99 123.49 67.44 119.70 C 70.54 125.77 72.65 132.27 74.14 138.91 C 71.80 142.52 68.64 145.59 65.29 148.26 C 59.88 152.04 51.34 148.32 50.44 141.74 C 49.60 137.82 51.93 134.23 54.84 131.85 Z" />
</g>
<g id="#5d94c2ff">
<path fill="#5d94c2" opacity="1.00" d=" M 83.54 157.50 C 86.28 154.11 89.38 150.96 92.84 148.31 C 93.95 150.84 95.45 153.20 96.26 155.86 C 98.97 166.80 103.63 177.15 106.22 188.14 C 103.91 191.84 100.34 194.55 96.80 197.00 C 97.02 187.75 92.37 179.44 90.32 170.62 C 88.85 165.93 88.41 160.04 83.54 157.50 Z" />
</g>
<g id="#4899c7ff">
<path fill="#4899c7" opacity="1.00" d=" M 77.44 163.59 C 79.12 161.24 81.32 159.32 83.54 157.50 C 88.41 160.04 88.85 165.93 90.32 170.62 C 92.37 179.44 97.02 187.75 96.80 197.00 L 96.76 197.59 C 92.03 198.35 86.80 197.23 84.18 192.86 C 84.78 192.73 85.98 192.49 86.57 192.37 C 86.05 187.19 83.84 182.39 82.58 177.38 C 81.37 172.61 79.60 168.01 77.44 163.59 Z" />
</g>
<g id="#269ecdff">
<path fill="#269ecd" opacity="1.00" d=" M 67.35 173.35 C 70.63 170.02 73.72 166.45 77.44 163.59 C 79.60 168.01 81.37 172.61 82.58 177.38 C 83.84 182.39 86.05 187.19 86.57 192.37 C 85.98 192.49 84.78 192.73 84.18 192.86 C 81.62 192.68 79.03 192.18 76.47 192.60 C 74.46 193.37 72.90 194.93 71.38 196.39 C 66.76 201.10 62.21 205.90 57.50 210.52 C 55.52 212.50 52.87 213.95 50.00 213.72 C 44.67 214.26 40.22 209.09 40.43 203.99 C 40.32 201.19 41.94 198.76 43.81 196.84 C 51.44 188.80 59.75 181.43 67.35 173.35 Z" />
</g>
<g id="#239ecdff">
<path fill="#239ecd" opacity="1.00" d=" M 36.52 167.66 C 39.06 167.07 42.25 166.77 44.29 168.75 C 48.08 171.78 47.25 178.86 42.65 180.72 C 38.11 183.25 32.14 178.98 32.36 174.00 C 32.32 171.29 34.33 169.00 36.52 167.66 Z" />
</g>
</svg>

<?xml version="1.0" encoding="utf-8"?>
<!-- Generator: Adobe Illustrator 26.0.3, SVG Export Plug-In . SVG Version: 6.00 Build 0)  -->
<svg version="1.1" id="Layer_1" xmlns="http://www.w3.org/2000/svg" xmlns:xlink="http://www.w3.org/1999/xlink" x="0px" y="0px"
	 viewBox="0 0 250 250" style="enable-background:new 0 0 250 250;" xml:space="preserve">
<style type="text/css">
	.st0{fill:#FFFFFF;}
	.st1{fill:#C25993;}
	.st2{fill:#B6679B;}
	.st3{fill:#E4107F;}
	.st4{fill:#AD6E9F;}
	.st5{fill:#D34088;}
	.st6{fill:#A474A4;}
	.st7{fill:#C75490;}
	.st8{fill:#9B7AA9;}
	.st9{fill:#E5087D;}
	.st10{fill:#BE5F96;}
	.st11{fill:#927FAD;}
	.st12{fill:#8785B2;}
	.st13{fill:#7C8AB7;}
	.st14{fill:#D73586;}
	.st15{fill:#6E8FBD;}
	.st16{fill:#CA508E;}
	.st17{fill:#5796C3;}
	.st18{fill:#289ECD;}
	.st19{fill:#5D94C2;}
	.st20{fill:#4899C7;}
	.st21{fill:#269ECD;}
	.st22{fill:#239ECD;}
</style>
<circle class="st0" cx="124" cy="124.5" r="125"/>
<g id="_x23_c25993ff">
	<path class="st1" d="M143.9,43.1c2.5-3.6,6.3-7.2,11.1-6.9c3.6-0.3,6.7,2.3,8.3,5.3c1,3.6,1,8.1-1.8,10.9
		c-3.3,3.6-6.7,7.1-10.3,10.4C147.1,56.9,145.4,50,143.9,43.1z"/>
</g>
<g id="_x23_b6679bff">
	<path class="st2" d="M135.8,51.2c2.3-3,5.1-5.7,8.1-8.1c1.6,6.9,3.2,13.8,7.3,19.7c0.5,3.3,0.9,6.6,1.5,9.9
		c-0.4,0.1-1.2,0.2-1.6,0.2c6.5,22.3,13.1,44.6,20.1,66.8c0.6,1.8,1.2,3.7,2.3,5.2c0.8,0.3,1.7,0.6,2.5,0.8
		c-2.8,3.2-5.9,6.2-9.4,8.7c-1.7-4.1-3.4-8.3-4.5-12.6c-7.1-25.4-15.9-50.3-23.3-75.6C137.2,61.3,135.2,56.4,135.8,51.2z"/>
</g>
<g id="_x23_e4107fff">
	<path class="st3" d="M187.8,53.2c3.9-4.4,8-9.8,14.3-10.5c3.8,0.6,7.6,2.7,8.6,6.6c2,4.5-0.9,9.2-4.1,12.2c-4.3,4-8,8.7-12.8,12
		C190.1,67.3,187.8,60.4,187.8,53.2z"/>
</g>
<g id="_x23_ad6e9fff">
	<path class="st4" d="M127.9,59.3c2.3-3,5.1-5.6,7.9-8.1c-0.5,5.2,1.4,10.2,3,15c7.4,25.3,16.2,50.2,23.3,75.6
		c1.1,4.3,2.8,8.5,4.5,12.6c-1.8,3.3-4.8,5.7-7.8,7.9c-3.1-8.6-5-17.5-8.1-26.1c-6.5-19.2-11.9-38.7-17.9-58
		C130.7,72.1,128.6,65.8,127.9,59.3z"/>
</g>
<g id="_x23_d34088ff">
	<path class="st5" d="M175.9,65.1c3.7-4.2,7.6-8.3,11.9-11.9c0,7.2,2.4,14.1,5.9,20.4c-3.2,4.5-7.5,8.2-11.5,11.9
		c-1.2,0.3-2.4,0.5-3.7,0.6C176.1,79.5,172.9,72,175.9,65.1z"/>
</g>
<g id="_x23_a474a4ff">
	<path class="st6" d="M119.8,67.2c2.2-3.1,5.1-5.6,8.1-7.9c0.7,6.5,2.8,12.8,4.9,19c6,19.3,11.4,38.8,17.9,58
		c3.1,8.6,5,17.5,8.1,26.1c-1.4,2.7-3.8,4.7-6.2,6.4c-1.9-2.8-3.9-5.6-4.7-8.9c-2.4-8.4-4.9-16.7-7.7-25c-2-6.4-3.6-12.9-5.8-19.2
		c-3.5-10.3-5.8-21-9.7-31.2C122.5,78.9,120.7,73.1,119.8,67.2z"/>
</g>
<g id="_x23_c75490ff">
	<path class="st7" d="M163.6,75.9c4.4-3.3,8.3-7.1,12.3-10.8c-2.9,6.9,0.2,14.4,2.6,21c1.2-0.1,2.5-0.4,3.7-0.6
		c-3.9,4.4-7.8,9.1-12.8,12.3c-4.1-5.2-5.4-11.8-6.9-18C161.9,78.2,162.6,76.9,163.6,75.9z"/>
</g>
<g id="_x23_9b7aa9ff">
	<path class="st8" d="M112.1,75.1c2.1-3.1,4.8-5.6,7.7-7.9c0.9,5.9,2.7,11.7,4.8,17.3c3.9,10.2,6.1,20.9,9.7,31.2
		c2.2,6.3,3.8,12.8,5.8,19.2c2.8,8.2,5.3,16.6,7.7,25c0.8,3.3,2.8,6.1,4.7,8.9c-2.1,3.2-5.1,5.6-8.1,7.9c-4.4-4.6-4.4-11.2-6.3-16.9
		c-2.9-9.4-6.2-18.7-8.7-28.2c-2.4-9.2-6.2-18-8.7-27.2C118,94.6,114.4,85,112.1,75.1z"/>
</g>
<g id="_x23_e5087dff">
	<path class="st9" d="M208.3,70.2c4.7-2.5,10.2,1.9,10.2,6.8c-0.4,4.1-4.1,7.8-8.4,6.8C203.3,83.5,202.1,72.5,208.3,70.2z"/>
</g>
<g id="_x23_be5f96ff">
	<path class="st10" d="M151.1,72.9c0.4-0.1,1.2-0.2,1.6-0.2c3.2,2.3,6.9,3.5,10.9,3.2c-1,1-1.7,2.3-1.2,3.8c1.6,6.3,2.9,12.8,6.9,18
		c-0.3,2.1-1,4.2-1.4,6.3c0.3,3.5,2.5,6.9,5.8,8.2c2,0.5,4.1,0.6,6.2,0.8c-1.2,0.9-2.5,1.6-3.6,2.6c0.4,7.8,3.6,15.2,7.2,22
		c-2,3.1-4.8,5.6-7.6,8.1c-0.9-0.2-1.7-0.4-2.5-0.8c-1.1-1.6-1.7-3.4-2.3-5.2C164.1,117.6,157.6,95.2,151.1,72.9z"/>
</g>
<g id="_x23_927fadff">
	<path class="st11" d="M104.4,82.9c2-3.1,4.8-5.5,7.7-7.8c2.2,9.9,5.9,19.5,8.6,29.3c2.5,9.2,6.3,18,8.7,27.2
		c2.5,9.5,5.8,18.8,8.7,28.2c1.9,5.7,1.9,12.3,6.3,16.9c-2,3.4-5.4,5.9-9.1,6.9c-1.5-10.8-5.9-20.8-8.7-31.2
		c-4.7-13-8.2-26.3-12.5-39.4C111,102.9,108.9,92.5,104.4,82.9z"/>
</g>
<g id="_x23_8785b2ff">
	<path class="st12" d="M95.6,91.5c2.3-3.4,5.6-6.1,8.8-8.6c4.4,9.6,6.5,20,9.7,30.1c4.3,13.1,7.9,26.4,12.5,39.4
		c2.8,10.5,7.2,20.5,8.7,31.2c-6.2,0.9-9.9-6.2-16.2-5.4c1.4-0.6,2.8-1.1,4.1-1.9c-0.1-2.1-0.7-4.1-1.3-6.1
		c-6.9-23-14.3-45.9-21-68.9C100,97.6,97.9,94.4,95.6,91.5z"/>
</g>
<g id="_x23_7c8ab7ff">
	<path class="st13" d="M87.7,99.4c2.2-3.1,5-5.6,7.9-8c2.3,2.9,4.4,6.1,5.3,9.8c6.7,23.1,14.1,45.9,21,68.9c0.6,2,1.2,4,1.3,6.1
		c-1.3,0.8-2.7,1.4-4.1,1.9c-1.6,0.7-3.3,1.3-5,1.7c-6.8-25.3-16.1-49.8-22.8-75.1C90.6,102.7,88.9,101.2,87.7,99.4z"/>
</g>
<g id="_x23_d73586ff">
	<path class="st14" d="M190.6,104.1c3.1-4.6,9.4-8.7,15-5.7c5.8,2.6,6.7,11.2,2.3,15.4c-3.3,3.4-6.6,6.9-10.2,10
		C192.6,118.5,191.2,111.1,190.6,104.1z"/>
</g>
<g id="_x23_6e8fbdff">
	<path class="st15" d="M78.6,108.5c2.7-3.3,5.8-6.2,9-9c1.2,1.8,2.9,3.2,3.5,5.4c6.7,25.3,16,49.8,22.8,75.1c-1.7,3.5-4.8,6-7.8,8.3
		c-2.6-11-7.2-21.3-10-32.3c-0.8-2.7-2.3-5-3.4-7.6c-0.3-3.2,1.7-6.7-0.5-9.6c-2.1-4.1-6.9-5.6-11.2-4.6c1.8-0.7,3.6-1.2,5.3-1.9
		c-0.3-5.3-2.5-10.2-3.7-15.3C82.2,113.7,80.3,111.1,78.6,108.5z"/>
</g>
<g id="_x23_ca508eff">
	<path class="st16" d="M179.9,113c4.3-2,7.2-5.9,10.7-8.9c0.6,7,2,14.4,7,19.8c-4.4,4.9-9.1,9.5-14.1,13.8c-3.6-6.8-6.8-14.3-7.2-22
		C177.4,114.5,178.7,113.9,179.9,113z"/>
</g>
<g id="_x23_5796c3ff">
	<path class="st17" d="M67.4,119.7c3.2-4.2,7.1-7.9,11.2-11.2c1.6,2.7,3.5,5.3,4.2,8.4c1.1,5.1,3.4,10.1,3.7,15.3
		c-1.7,0.7-3.6,1.2-5.3,1.9c-2.6,1.2-4.6,3.3-7,4.8C72.7,132.3,70.5,125.8,67.4,119.7z"/>
</g>
<g id="_x23_289ecdff">
	<path class="st18" d="M54.8,131.9c4.4-3.9,8.2-8.4,12.6-12.2c3.1,6.1,5.2,12.6,6.7,19.2c-2.3,3.6-5.5,6.7-8.8,9.3
		c-5.4,3.8-14,0.1-14.9-6.5C49.6,137.8,51.9,134.2,54.8,131.9z"/>
</g>
<g id="_x23_5d94c2ff">
	<path class="st19" d="M83.5,157.5c2.7-3.4,5.8-6.5,9.3-9.2c1.1,2.5,2.6,4.9,3.4,7.6c2.7,10.9,7.4,21.3,10,32.3
		c-2.3,3.7-5.9,6.4-9.4,8.9c0.2-9.2-4.4-17.6-6.5-26.4C88.8,165.9,88.4,160,83.5,157.5z"/>
</g>
<g id="_x23_4899c7ff">
	<path class="st20" d="M77.4,163.6c1.7-2.3,3.9-4.3,6.1-6.1c4.9,2.5,5.3,8.4,6.8,13.1c2.1,8.8,6.7,17.1,6.5,26.4l0,0.6
		c-4.7,0.8-10-0.4-12.6-4.7c0.6-0.1,1.8-0.4,2.4-0.5c-0.5-5.2-2.7-10-4-15C81.4,172.6,79.6,168,77.4,163.6z"/>
</g>
<g id="_x23_269ecdff">
	<path class="st21" d="M67.3,173.4c3.3-3.3,6.4-6.9,10.1-9.8c2.2,4.4,3.9,9,5.1,13.8c1.3,5,3.5,9.8,4,15c-0.6,0.1-1.8,0.4-2.4,0.5
		c-2.6-0.2-5.2-0.7-7.7-0.3c-2,0.8-3.6,2.3-5.1,3.8c-4.6,4.7-9.2,9.5-13.9,14.1c-2,2-4.6,3.4-7.5,3.2c-5.3,0.5-9.8-4.6-9.6-9.7
		c-0.1-2.8,1.5-5.2,3.4-7.2C51.4,188.8,59.8,181.4,67.3,173.4z"/>
</g>
<g id="_x23_239ecdff">
	<path class="st22" d="M36.5,167.7c2.5-0.6,5.7-0.9,7.8,1.1c3.8,3,3,10.1-1.6,12c-4.5,2.5-10.5-1.7-10.3-6.7
		C32.3,171.3,34.3,169,36.5,167.7z"/>
</g>
</svg>
